X:105
T:Pipers Maggot
T:Pipers Fancy
Z:Jack Campin, http://www.campin.me.uk/
S:Northumbrian Minstrelsy
M:9/8
L:1/8
K:G
c|d3     GBG dBG|B/c/dB gdB efg|d3     GBG dBG|A/B/cA fAB c2:|
c|B/c/dB gdB gdB|B/c/dc fdB efg|B/c/dB gdB gdB|A/B/cA fAB c2:|

